src/icons/hds/ui/photo.svg

<svg xmlns="http://www.w3.org/2000/svg" width="24" height="24" viewBox="0 0 24 24">
  <g fill="none" fill-rule="evenodd">
    <rect width="24" height="24"/>
    <path fill="currentColor" d="M20,2 L20,22 L4,22 L4,2 L20,2 Z M16,15 C15.1401438,15 14.7159295,15.2222839 13.8800274,16.0363036 L13.7071068,16.2071068 C12.4113038,17.5029097 11.5828201,18 10,18 C8.50048627,18 7.67799456,17.553858 6.49378826,16.4051137 L6,15.92 L6,20 L18,20 L18,15.922 L17.9580303,15.88128 C17.2255724,15.193634 16.8025325,15 16,15 Z M18,4 L6,4 L6.00113961,13.4397416 C6.50286956,13.6830613 6.92886459,14.0298102 7.51077528,14.5986306 L7.70710678,14.7928932 C8.66130383,15.7470903 9.08282005,16 10,16 C10.8598562,16 11.2840705,15.7777161 12.1199726,14.9636964 L12.2928932,14.7928932 C13.5886962,13.4970903 14.4171799,13 16,13 C16.8098125,13 17.4221687,13.1301191 18.0006779,13.4307519 L18,4 Z M10,6 C11.6568542,6 13,7.34314575 13,9 C13,10.6568542 11.6568542,12 10,12 C8.34314575,12 7,10.6568542 7,9 C7,7.34314575 8.34314575,6 10,6 Z M10,8 C9.44771525,8 9,8.44771525 9,9 C9,9.55228475 9.44771525,10 10,10 C10.5522847,10 11,9.55228475 11,9 C11,8.44771525 10.5522847,8 10,8 Z"/>
  </g>
</svg>

<svg viewBox="0 0 24 24" role="img" xmlns="http://www.w3.org/2000/svg"><g fill="none" fill-rule="evenodd"><path d="M0 0h24v24H0z"/><path d="M20 2v20H4V2h16zm-4 13c-.86 0-1.284.222-2.12 1.036l-.173.171C12.411 17.503 11.583 18 10 18c-1.5 0-2.322-.446-3.506-1.595L6 15.92V20h12v-4.078l-.042-.04C17.226 15.193 16.803 15 16 15zm2-11H6l.001 9.44c.502.243.928.59 1.51 1.159l.196.194C8.661 15.747 9.083 16 10 16c.86 0 1.284-.222 2.12-1.036l.173-.171C13.589 13.497 14.417 13 16 13c.81 0 1.422.13 2 .43V4zm-8 2a3 3 0 110 6 3 3 0 010-6zm0 2a1 1 0 100 2 1 1 0 000-2z" fill="currentColor"/></g></svg>
